X:18861
T:Wisahicken Drive
S:irtrad-l, Henrik Norbeck
R:reel
C:Liz Carroll
Z:id:hn-reel-257
M:C|
K:A
EFAB cBAB|ceef ecBA|F2dF eFde|fedf ecBA| EFAB cBAB\
|ceef ecBA|~f3a e2cA|1 BABc ~A3F:|2 BABc ABce\
||:a2ga baga|~f3e fgaf|ec~c2 acec|1 fcec BAce\
| a2ga baga|f2de fgaf|ec~c2 afec|BAGB ABce:|2 fcec BABc\
| ABce a2ga|f2de fgaf|ec~c2 afec|BAGB ~A3F||


